X: 35320
T: Roseland, The
R: barndance
M: 4/4
K: Bminor
|:(3Bcd|f>Bd>f e>Ac>e|d>GB>d c>F^A>c|(3BcB (3dcd (3f^ef (3b^ab|a>fd>f a2 (3Bcd|
f>Bd>f e>Ac>e|d>GB>d c>F^A>c|B>fd>B A>ec>A|F>Ad>c B2:|
K: Dmaj
|:(3Adf|a>f (3dcB B>dg>a|b2 a2 a2 (3Adf|a2 g2 g2 (3Ace|g2 f2 f2 (3Adf|
a>f (3dcB B>d (3gab|b2 a2 a2 (3Adf|a>ge>c A>Bc>d|e>dc>e d2:|
K: Gmaj
|:(3Bc^c|d>GB>d e>GB>d|e>Ac>e f>Ac>e|f>Bd>f g>Bd>f|a>ge>c A>DD>c|
(3BcB G>B d2 c>B|(3ABc A>B (3cBA d>c|(3BcB G>F E>cE>F|A>GF>A G2:|

